X:2957
T:Chicago Reel, The
R:reel
D:Stockton's Wing
D:Fintan Vallely: Traditional Irish Flute Music
Z:id:hn-reel-556
M:C|
K:Ador
cded cAGE|~G3E GAcd|ecgc acgc|eaag edcA|
cded cAGE|~G3E GAcd|eaag (3efg ed|cABG ~A3B:|
|:cdef g2ef|gfgd BG~G2|cdef g2fg|eaag aged|
cdef ~g3e|~a3f ~g3e|~f3d efed|cABG ~A3B:|
"variations"
|:cded cAGE|~G3E GAcd|(3edc gc acgc|eaag eged|
cded cAGE|G2GE GAcd|eaag ~e3d|cABG A2AB:|
|:cdef g2ef|gfgd BG~G2|(3Bcd ef gedg|eaag aged|
(3Bcd ef ~g3e|~a3f ~g3e|=f3d efed|cABG ~A3B:|


